X: 83
T: Mr Willm. Robertson's Reel
R: reel
B: William Shepherd "1st Collection" 1793 p.8 #3
F: http://imslp.org/wiki/File:PMLP73094-Shepherd_Collections_HMT.pdf
C: William Shepherd (17??-1812)
Z: 2012 John Chambers <jc:trillian.mit.edu>
M: C|
L: 1/8
K: D
g |\
fdec dABG | FDAD CEEg |\
[1 fdec dABG | GF/E/ AG FD D :|\
[2 FADF GBEd | Ac ef/g/ fd d ||
g |\
fede fgaf | gfed cdeg |\
fede fgaf | geAg fddg |\
fede fgaf | gbed cdeg |\
fdcd Bc/d/ AF | GEAG FD D |]
